<?xml version="1.0" encoding="UTF-8"?>
<map version="1.10" tiledversion="1.12.1" orientation="orthogonal" renderorder="right-down" width="48" height="25" tilewidth="18" tileheight="18" infinite="0" nextlayerid="4" nextobjectid="47">
 <editorsettings>
  <export target="platformer-level-1.tmj" format="json"/>
 </editorsettings>
 <tileset firstgid="1" name="kenny_tilemap_packed" tilewidth="18" tileheight="18" tilecount="180" columns="20">
  <image source="tilemap_packed.png" width="360" height="162"/>
  <tile id="0">
   <properties>
    <property name="collides" type="bool" value="true"/>
   </properties>
  </tile>
  <tile id="1">
   <properties>
    <property name="collides" type="bool" value="true"/>
   </properties>
  </tile>
  <tile id="2">
   <properties>
    <property name="collides" type="bool" value="true"/>
   </properties>
  </tile>
  <tile id="3">
   <properties>
    <property name="collides" type="bool" value="true"/>
   </properties>
  </tile>
  <tile id="20">
   <properties>
    <property name="collides" type="bool" value="true"/>
   </properties>
  </tile>
  <tile id="21">
   <properties>
    <property name="collides" type="bool" value="true"/>
   </properties>
  </tile>
  <tile id="22">
   <properties>
    <property name="collides" type="bool" value="true"/>
   </properties>
  </tile>
  <tile id="23">
   <properties>
    <property name="collides" type="bool" value="true"/>
   </properties>
  </tile>
  <tile id="33">
   <properties>
    <property name="water" type="bool" value="true"/>
   </properties>
  </tile>
  <tile id="34">
   <properties>
    <property name="collides" type="bool" value="true"/>
   </properties>
  </tile>
  <tile id="40">
   <properties>
    <property name="collides" type="bool" value="true"/>
   </properties>
  </tile>
  <tile id="41">
   <properties>
    <property name="collides" type="bool" value="true"/>
   </properties>
  </tile>
  <tile id="42">
   <properties>
    <property name="collides" type="bool" value="true"/>
   </properties>
  </tile>
  <tile id="43">
   <properties>
    <property name="collides" type="bool" value="true"/>
   </properties>
  </tile>
  <tile id="47">
   <properties>
    <property name="collides" type="bool" value="true"/>
   </properties>
  </tile>
  <tile id="48">
   <properties>
    <property name="collides" type="bool" value="true"/>
   </properties>
  </tile>
  <tile id="49">
   <properties>
    <property name="collides" type="bool" value="true"/>
   </properties>
  </tile>
  <tile id="50">
   <properties>
    <property name="collides" type="bool" value="true"/>
   </properties>
  </tile>
  <tile id="53">
   <properties>
    <property name="water" type="bool" value="true"/>
   </properties>
  </tile>
  <tile id="60">
   <properties>
    <property name="collides" type="bool" value="true"/>
   </properties>
  </tile>
  <tile id="61">
   <properties>
    <property name="collides" type="bool" value="true"/>
   </properties>
  </tile>
  <tile id="62">
   <properties>
    <property name="collides" type="bool" value="true"/>
   </properties>
  </tile>
  <tile id="63">
   <properties>
    <property name="collides" type="bool" value="true"/>
   </properties>
  </tile>
  <tile id="73">
   <properties>
    <property name="water" type="bool" value="true"/>
   </properties>
  </tile>
  <tile id="80">
   <properties>
    <property name="collides" type="bool" value="true"/>
   </properties>
  </tile>
  <tile id="81">
   <properties>
    <property name="collides" type="bool" value="true"/>
   </properties>
  </tile>
  <tile id="82">
   <properties>
    <property name="collides" type="bool" value="true"/>
   </properties>
  </tile>
  <tile id="83">
   <properties>
    <property name="collides" type="bool" value="true"/>
   </properties>
  </tile>
  <tile id="100">
   <properties>
    <property name="collides" type="bool" value="true"/>
   </properties>
  </tile>
  <tile id="101">
   <properties>
    <property name="collides" type="bool" value="true"/>
   </properties>
  </tile>
  <tile id="102">
   <properties>
    <property name="collides" type="bool" value="true"/>
   </properties>
  </tile>
  <tile id="103">
   <properties>
    <property name="collides" type="bool" value="true"/>
   </properties>
  </tile>
  <tile id="120">
   <properties>
    <property name="collides" type="bool" value="true"/>
   </properties>
  </tile>
  <tile id="121">
   <properties>
    <property name="collides" type="bool" value="true"/>
   </properties>
  </tile>
  <tile id="122">
   <properties>
    <property name="collides" type="bool" value="true"/>
   </properties>
  </tile>
  <tile id="123">
   <properties>
    <property name="collides" type="bool" value="true"/>
   </properties>
  </tile>
  <tile id="140">
   <properties>
    <property name="collides" type="bool" value="true"/>
   </properties>
  </tile>
  <tile id="141">
   <properties>
    <property name="collides" type="bool" value="true"/>
   </properties>
  </tile>
  <tile id="142">
   <properties>
    <property name="collides" type="bool" value="true"/>
   </properties>
  </tile>
  <tile id="143">
   <properties>
    <property name="collides" type="bool" value="true"/>
   </properties>
  </tile>
 </tileset>
 <tileset firstgid="181" name="kenny_tilemap_packed_air" tilewidth="18" tileheight="18" tilecount="40" columns="10">
  <image source="../../ParticlePractice/assets/tilemap-backgrounds_packed.png" width="192" height="72"/>
 </tileset>
 <layer id="3" name="Background" width="48" height="25">
  <data encoding="csv">
181,181,181,181,181,182,183,184,181,181,181,181,182,183,184,185,185,181,181,181,181,182,183,181,182,183,184,185,185,185,185,185,185,185,185,185,185,181,181,181,181,181,181,181,181,181,181,181,
181,182,181,181,181,181,181,182,181,181,181,181,181,181,181,181,182,181,182,183,181,181,181,181,181,181,181,182,183,184,181,181,181,181,182,183,181,182,183,184,185,185,185,185,185,185,183,184,
181,182,183,184,185,185,181,181,181,182,183,184,185,181,182,181,181,181,181,181,181,181,181,182,183,184,181,181,181,181,181,182,183,181,181,181,181,181,181,181,181,181,181,182,183,184,185,185,
181,182,183,184,185,181,182,183,184,185,181,182,183,184,185,181,182,183,184,185,181,182,183,184,185,181,182,183,184,185,181,182,183,184,185,181,182,183,184,185,181,182,183,184,185,181,182,183,
191,192,193,194,195,191,192,193,194,195,191,192,193,194,195,191,192,193,194,195,191,192,193,194,195,191,192,193,194,195,191,192,193,194,195,191,192,193,194,195,191,192,193,194,195,191,192,193,
201,202,203,204,205,201,202,203,204,205,201,202,203,204,205,201,202,203,204,205,201,202,203,204,205,201,202,203,204,205,201,202,203,204,205,201,202,203,204,205,201,202,203,204,205,201,202,203,
211,211,212,213,214,215,214,215,215,211,212,213,214,215,211,212,213,211,212,213,214,215,215,215,215,215,215,215,215,211,212,213,214,215,212,213,214,215,215,212,213,214,215,215,215,215,211,212,
211,211,211,212,213,214,215,215,215,213,214,215,215,211,212,213,214,211,212,213,214,215,212,213,214,215,213,214,215,215,215,215,215,215,215,211,212,213,214,215,215,215,215,213,214,215,215,215,
211,212,211,211,212,213,214,215,213,214,215,215,211,212,213,211,211,211,211,212,213,214,215,215,215,211,211,211,212,211,211,211,211,211,212,213,214,215,215,215,215,212,213,214,215,213,214,215,
211,212,213,211,212,213,214,215,214,211,212,211,212,213,214,211,211,212,211,212,213,214,215,213,214,211,211,211,211,211,211,212,213,214,215,215,215,212,213,214,215,213,214,215,215,213,214,215,
211,212,213,211,212,213,214,215,211,212,211,212,213,214,215,215,211,211,212,211,212,213,214,211,212,213,214,211,211,212,213,214,215,215,212,211,212,213,214,215,213,214,215,215,213,214,215,213,
211,212,213,211,211,212,213,214,211,212,211,212,213,214,215,0,211,211,211,212,211,212,211,212,211,212,213,214,211,212,213,214,215,215,212,211,212,213,214,215,215,215,213,214,215,212,213,214,
212,213,214,215,211,211,212,213,214,211,212,213,214,215,215,211,211,211,211,211,211,212,211,212,211,211,212,211,212,213,214,215,215,211,212,213,214,215,213,211,211,212,213,214,215,213,214,215,
211,212,213,214,215,211,212,213,214,211,212,213,214,215,211,211,212,213,211,211,211,211,212,213,214,211,211,212,213,214,215,215,211,212,213,214,215,214,211,211,212,213,214,215,213,214,215,215,
211,212,213,214,215,214,211,212,213,211,211,211,212,213,211,211,211,211,211,212,211,211,212,213,214,211,212,213,214,215,211,211,212,213,214,215,215,211,211,212,213,214,215,215,214,211,212,213,
211,212,213,214,215,214,211,212,213,214,215,215,211,211,211,212,213,214,215,211,212,213,211,211,211,212,213,214,215,212,213,214,215,213,214,215,215,211,212,213,214,215,213,211,212,213,214,215,
211,212,213,214,215,215,212,211,212,213,214,215,214,215,211,211,212,213,214,215,211,212,213,211,212,213,214,215,211,211,212,213,214,215,215,213,214,211,212,213,214,215,213,214,215,215,215,212,
211,212,213,214,215,213,214,215,211,212,213,214,215,211,212,213,214,215,211,211,212,213,211,212,213,214,215,215,211,212,213,214,215,214,211,212,211,212,213,214,215,215,215,215,215,211,211,212,
212,213,214,215,213,214,215,211,211,212,213,214,215,213,214,215,211,211,211,212,213,211,212,213,214,215,211,211,212,213,214,215,211,212,213,211,212,213,214,215,213,211,212,213,214,215,215,215,
212,213,214,215,214,215,215,211,212,211,212,213,214,215,215,211,212,213,214,215,211,212,213,214,215,211,211,212,213,214,215,215,213,211,211,212,213,214,215,214,215,215,212,211,212,213,214,215,
213,214,215,215,215,211,212,211,212,213,211,212,213,214,211,212,213,214,215,211,212,213,211,211,211,211,212,213,214,215,215,214,215,211,212,213,214,215,214,215,211,211,211,212,213,214,215,214,
213,214,215,211,212,213,211,212,213,214,215,211,212,211,212,213,214,215,211,212,211,211,212,213,214,211,212,213,214,215,214,215,211,212,213,214,215,214,215,211,211,212,213,214,215,213,214,215,
214,215,212,213,214,211,212,213,214,215,214,215,211,212,213,214,215,211,211,211,212,213,214,211,212,213,214,215,215,214,215,213,211,212,213,214,215,211,211,212,213,214,215,213,214,215,211,211,
214,215,214,215,211,212,213,214,215,0,211,212,211,212,213,214,211,211,212,213,214,215,212,211,212,213,214,215,214,215,211,211,212,213,214,215,211,212,213,214,215,212,213,214,211,211,212,213,
215,214,215,211,212,213,214,215,211,211,211,212,213,214,211,211,212,213,214,215,215,211,211,212,213,214,215,214,215,211,211,212,213,214,215,211,212,213,214,215,212,213,211,211,212,213,214,215
</data>
 </layer>
 <layer id="1" name="Ground-n-Platforms" width="48" height="25">
  <data encoding="csv">
0,0,0,0,0,0,0,0,0,0,0,0,0,0,0,0,0,0,0,0,0,0,0,0,0,0,0,0,0,0,0,0,0,0,0,0,0,0,0,0,0,0,0,0,0,0,0,0,
0,0,0,0,0,0,0,0,0,0,0,0,0,0,0,0,0,0,0,0,0,0,0,0,0,0,0,0,0,0,0,0,0,0,0,0,0,0,0,0,0,0,0,0,0,0,0,0,
0,0,0,0,0,0,0,0,0,0,0,0,0,0,0,0,0,0,0,0,0,0,0,0,0,0,0,0,0,0,0,0,0,0,0,0,0,0,0,0,0,0,0,0,0,0,0,0,
0,0,0,0,0,0,0,0,0,0,0,0,0,0,0,0,0,0,0,0,0,0,0,0,0,0,0,0,0,0,0,0,0,0,0,0,0,0,0,0,0,0,0,0,0,0,0,0,
0,0,0,0,0,0,0,0,0,0,0,0,0,0,0,0,0,0,0,0,0,0,0,0,0,0,0,0,0,0,0,0,0,0,0,0,0,0,0,0,0,0,0,0,0,0,0,0,
0,0,0,0,0,0,0,0,0,0,0,0,0,0,0,0,0,0,0,0,0,0,0,0,0,0,0,0,0,0,0,0,0,0,0,0,0,0,0,0,0,0,0,0,0,0,0,0,
0,0,0,0,0,0,0,0,0,0,0,0,0,0,0,0,0,0,0,0,0,0,0,0,0,0,0,0,0,0,0,0,0,0,0,0,0,0,0,0,0,0,0,0,0,0,0,0,
0,0,0,0,0,0,0,0,0,0,0,0,0,0,0,0,0,0,0,0,49,50,50,50,51,0,0,0,0,0,0,0,0,0,0,0,0,49,50,51,0,0,0,0,0,0,0,0,
0,0,0,0,0,0,0,0,0,0,0,0,0,0,0,0,0,0,0,0,0,0,0,0,0,0,0,0,0,0,0,0,0,0,0,0,0,0,0,0,0,0,0,0,0,0,0,0,
0,0,0,0,0,0,0,0,0,0,0,0,0,0,0,0,0,0,0,0,0,0,0,0,0,0,0,0,0,0,0,49,50,51,0,0,0,0,0,0,0,0,0,0,0,0,0,0,
0,0,0,0,0,0,0,0,0,0,0,0,0,0,0,0,0,0,0,0,0,0,0,0,0,0,0,0,0,0,0,0,0,0,0,0,0,0,0,0,0,0,0,0,0,0,0,0,
0,0,0,0,0,0,0,0,0,0,0,0,0,0,0,49,50,50,51,0,0,0,0,0,0,0,0,0,0,0,0,0,0,0,0,0,0,0,0,0,0,0,0,0,0,0,0,0,
0,0,0,0,0,0,0,0,0,0,0,0,0,0,0,0,0,0,0,0,0,0,0,0,0,0,0,0,0,0,0,0,0,0,0,0,0,0,0,0,0,0,0,0,0,0,0,0,
0,0,0,0,0,0,0,0,0,0,0,0,0,0,0,0,0,0,0,0,0,0,0,0,0,0,0,0,0,0,0,0,0,0,0,0,0,0,0,0,0,0,0,0,0,0,0,0,
0,0,0,0,0,0,0,0,0,0,0,0,0,0,0,0,0,0,0,0,0,0,0,0,0,0,0,0,0,0,0,0,0,0,0,0,0,0,0,0,0,0,0,0,0,0,0,0,
0,0,0,0,0,0,0,0,0,0,0,0,0,0,0,0,0,0,0,0,0,0,0,0,0,0,0,0,0,0,0,0,0,0,0,0,0,0,0,0,102,103,103,104,0,0,0,0,
0,0,0,0,0,0,0,0,0,0,49,50,50,50,51,0,0,0,0,0,22,23,23,23,23,23,24,0,0,0,0,0,0,0,0,0,0,0,0,0,122,123,123,124,0,0,0,0,
0,0,0,0,0,0,0,0,0,0,0,0,0,0,0,0,0,0,0,0,122,123,123,123,123,123,124,0,0,0,0,0,0,0,0,0,0,0,0,0,122,123,123,124,0,0,0,0,
0,0,0,0,0,0,0,0,0,0,0,0,0,0,0,0,0,0,0,0,122,123,123,123,123,123,124,0,0,0,0,0,0,102,103,103,103,103,103,103,123,123,123,124,0,0,0,0,
0,0,0,0,0,0,0,0,0,0,0,0,0,0,0,0,0,0,0,0,122,123,123,123,123,123,124,0,0,0,0,0,0,122,123,123,123,123,123,123,123,123,123,124,0,0,0,0,
23,23,23,23,23,23,23,23,24,0,0,0,0,0,0,22,23,23,23,23,122,123,123,123,123,123,124,54,54,54,54,54,54,122,123,123,123,123,123,123,123,123,123,124,34,34,34,34,
123,123,123,123,123,123,123,123,124,0,0,0,0,0,0,122,123,123,123,123,123,123,123,123,123,123,124,74,74,74,74,74,35,122,123,123,123,123,123,123,123,123,123,124,74,74,74,74,
123,123,123,123,123,123,123,123,124,54,54,54,54,54,54,122,123,123,123,123,123,123,123,123,123,123,124,74,74,74,74,74,74,122,123,123,123,123,123,123,123,123,123,124,74,74,74,74,
123,123,123,123,123,123,123,123,124,74,74,74,74,74,74,122,123,123,123,123,123,123,123,123,123,123,124,74,74,74,74,74,74,133,134,134,134,134,134,134,134,134,134,135,74,74,74,74,
123,123,123,123,123,123,123,123,124,63,63,63,63,63,63,122,123,123,123,123,123,123,123,123,123,123,124,63,63,63,63,63,63,122,123,123,123,123,123,123,123,123,123,124,74,74,74,74
</data>
 </layer>
</map>
